X: 1
T: ROOM FOR THE CUCKOLDS
S: MDT
O: Bucknell
P: A.(A2B2)3.A2
Q: 3/8=96
B: Morris Ring
Z: 2005 John Chambers <jc@trillian.mit.edu>
M: 6/8
L: 1/8
K: A
P: A
|: A>AA E2E | F>Af ecA | A>AA E2E | F2B A3 :|
P: B
|: c2A  c2A | cAc  B3  | c2A  F2F | BAG A3 :|
